images/posta.svg

<?xml version="1.0" encoding="UTF-8"?>
<svg width="121px" height="18px" viewBox="0 0 121 18" version="1.1" xmlns="http://www.w3.org/2000/svg" xmlns:xlink="http://www.w3.org/1999/xlink">
    <title>posta</title>
    <g id="Page-1" stroke="none" stroke-width="1" fill="none" fill-rule="evenodd">
        <g id="posta" fill="#346275">
            <path d="M25.898,0.898 C25.99,0.898 26.082,0.903 26.191,0.996 L26.447,1.214 C26.574,1.323 26.521,1.404 26.479,1.473 L25.608,2.928 L21.767,3.969 L33.847,3.969 C34.03,3.969 34.048,3.986 34.124,4.057 L34.416,4.332 C34.482,4.393 34.488,4.445 34.428,4.547 L33.558,5.998 L29.379,7.131 L41.724,7.131 C41.823,7.131 41.912,7.138 41.975,7.197 L42.277,7.48 C42.352,7.551 42.347,7.638 42.305,7.708 L41.605,8.874 L29.025,12.327 L5.658,3.124 C4.91,2.829 4.97,2.729 5.154,2.422 L5.958,1.079 C6.016,0.982 6.066,0.898 6.245,0.898 L25.898,0.898" id="Fill-1"></path>
            <path d="M39.501,10.998 C39.595,10.973 39.656,10.956 39.787,11.079 L40.142,11.414 C40.27,11.535 40.2286527,11.604 40.19,11.67 L36.735,17.436 L16.903,17.436 C16.789,17.444 16.727,17.436 16.635,17.349 L16.344,17.076 C16.248,16.985 16.295,16.906 16.376,16.771 L17.842,14.323 L9.002,14.323 C8.925,14.323 8.801,14.323 8.745,14.271 L8.459,14.002 C8.337,13.887 8.383,13.802 8.492,13.628 L9.93,11.228 L1.061,11.228 C0.958,11.228 0.894,11.237 0.79,11.139 L0.52,10.886 C0.39,10.763 0.522,10.583 0.604,10.445 L4.181,4.477 C4.26,4.345 4.401,4.332 4.531,4.383 L28.789,13.938 L39.501,10.998" id="Fill-2"></path>
            <path d="M60.834,15.809 C60.495,14.416 60.903,12.788 62.059,10.923 C63.212,9.063 64.814,7.437 66.867,6.044 C68.911,4.646 71.104,3.948 73.442,3.948 L73.634,3.948 C75.95,3.948 77.274,4.652 77.6,6.06 C77.917,7.469 77.508,9.088 76.371,10.923 C75.216,12.788 73.621,14.41 71.587,15.793 C69.532,17.189 67.334,17.887 64.995,17.887 L64.792,17.905 C62.516,17.905 61.195,17.208 60.834,15.809 Z M67.24,14.718 L67.724,14.605 C68.431,14.454 69.205,14.089 70.053,13.514 C70.902,12.932 71.68,12.071 72.391,10.923 C73.091,9.795 73.372,8.946 73.235,8.381 C73.094,7.814 72.78,7.437 72.283,7.249 L71.928,7.154 L71.576,7.117 L71.117,7.154 L70.615,7.268 C69.965,7.431 69.216,7.802 68.368,8.377 C67.499,8.971 66.722,9.82 66.038,10.923 C65.335,12.058 65.051,12.901 65.187,13.454 C65.312,14.02 65.611,14.397 66.079,14.586 L66.42,14.702 L66.834,14.737 L67.24,14.718 Z M56.071,17.478 L52.331,17.478 L58.39,7.364 L54.022,7.364 L47.963,17.478 L44.223,17.478 L52.125,4.288 L63.972,4.288 L56.071,17.478 Z M86.245,4.288 L80.161,14.445 L83.278,14.445 L89.363,4.288 L93.103,4.288 L87.018,14.445 L90.238,14.445 L96.323,4.288 L100.062,4.288 L92.16,17.478 L74.603,17.478 L82.505,4.288 L86.245,4.288 Z M111.853,4.291 L109.961,7.364 L107.259,7.364 L101.199,17.478 L97.459,17.478 L103.518,7.364 L100.279,7.357 L102.161,4.291 L111.853,4.291 Z M117.578,17.478 L114.274,17.478 L114.867,15.16 L109.606,15.164 L107.51,17.489 L103.546,17.489 L116.296,4.291 L120.951,4.288 L117.578,17.478 Z M115.653,12.086 L112.592,12.086 L116.758,7.764 L115.653,12.086 L115.653,12.086 Z" id="Fill-3"></path>
        </g>
    </g>
</svg>

<?xml version="1.0" encoding="utf-8"?>
<!-- Generator: Adobe Illustrator 24.1.2, SVG Export Plug-In . SVG Version: 6.00 Build 0)  -->
<svg version="1.1" id="Layer_1" xmlns="http://www.w3.org/2000/svg" xmlns:xlink="http://www.w3.org/1999/xlink" x="0px" y="0px"
	 viewBox="0 0 121 18" style="enable-background:new 0 0 121 18;" xml:space="preserve">
<style type="text/css">
	.st0{fill-rule:evenodd;clip-rule:evenodd;fill:#FCF5A3;}
</style>
<g id="Page-1">
	<g id="posta">
		<path id="Fill-1" class="st0" d="M25.9,0.9c0.1,0,0.2,0,0.3,0.1l0.3,0.2c0.1,0.1,0.1,0.2,0,0.3l-0.9,1.5l-3.8,1h12.1
			C34,4,34,4,34.1,4.1l0.3,0.3c0.1,0.1,0.1,0.1,0,0.2L33.6,6l-4.2,1.1h12.3c0.1,0,0.2,0,0.3,0.1l0.3,0.3c0.1,0.1,0.1,0.2,0,0.2
			l-0.7,1.2L29,12.3L5.7,3.1C4.9,2.8,5,2.7,5.2,2.4L6,1.1C6,1,6.1,0.9,6.2,0.9H25.9"/>
		<path id="Fill-2" class="st0" d="M39.5,11c0.1,0,0.2,0,0.3,0.1l0.4,0.3c0.1,0.1,0.1,0.2,0,0.3l-3.5,5.8H16.9c-0.1,0-0.2,0-0.3-0.1
			l-0.3-0.3c-0.1-0.1,0-0.2,0-0.3l1.5-2.4H9c-0.1,0-0.2,0-0.3-0.1L8.5,14c-0.1-0.1-0.1-0.2,0-0.4l1.4-2.4H1.1c-0.1,0-0.2,0-0.3-0.1
			l-0.3-0.3c-0.1-0.1,0-0.3,0.1-0.4l3.6-6c0.1-0.1,0.2-0.1,0.3-0.1l24.3,9.6L39.5,11"/>
		<path id="Fill-3" class="st0" d="M60.8,15.8c-0.3-1.4,0.1-3,1.2-4.9c1.2-1.9,2.8-3.5,4.8-4.9c2-1.4,4.2-2.1,6.6-2.1h0.2
			c2.3,0,3.6,0.7,4,2.1c0.3,1.4-0.1,3-1.2,4.9c-1.2,1.9-2.8,3.5-4.8,4.9c-2.1,1.4-4.3,2.1-6.6,2.1l-0.2,0
			C62.5,17.9,61.2,17.2,60.8,15.8z M67.2,14.7l0.5-0.1c0.7-0.2,1.5-0.5,2.3-1.1c0.8-0.6,1.6-1.4,2.3-2.6c0.7-1.1,1-2,0.8-2.5
			c-0.1-0.6-0.5-0.9-1-1.1l-0.4-0.1l-0.4,0l-0.5,0l-0.5,0.1c-0.7,0.2-1.4,0.5-2.2,1.1C67.5,9,66.7,9.8,66,10.9c-0.7,1.1-1,2-0.9,2.5
			c0.1,0.6,0.4,0.9,0.9,1.1l0.3,0.1l0.4,0L67.2,14.7z M56.1,17.5h-3.7l6.1-10.1H54L48,17.5h-3.7l7.9-13.2H64L56.1,17.5z M86.2,4.3
			l-6.1,10.2h3.1l6.1-10.2h3.7L87,14.4h3.2l6.1-10.2h3.7l-7.9,13.2H74.6l7.9-13.2H86.2z M111.9,4.3L110,7.4h-2.7l-6.1,10.1h-3.7
			l6.1-10.1l-3.2,0l1.9-3.1H111.9z M117.6,17.5h-3.3l0.6-2.3l-5.3,0l-2.1,2.3h-4l12.8-13.2l4.7,0L117.6,17.5z M115.7,12.1h-3.1
			l4.2-4.3L115.7,12.1L115.7,12.1z"/>
	</g>
</g>
</svg>
